sites/BuhOne/images/header/logo.svg

<svg width="40" height="40" viewBox="0 0 40 40" fill="none" xmlns="http://www.w3.org/2000/svg">
<path d="M32.584 4.44957C32.5608 4.4264 32.5144 4.40322 32.4913 4.35687C32.5144 4.40322 32.5608 4.4264 32.584 4.44957Z" fill="#FFFAF7"/>
<path d="M32.1437 4.10192C32.2596 4.19462 32.3754 4.28732 32.4913 4.35684C32.3754 4.28732 32.2596 4.19462 32.1437 4.10192C32.1205 4.07874 32.0742 4.05557 32.051 4.03239L32.0046 4.00922L32.051 4.03239C32.0742 4.05557 32.1205 4.07874 32.1437 4.10192Z" fill="#FFFAF7"/>
<path d="M31.9583 3.96291L31.8887 3.91656L31.9583 3.96291Z" fill="#FFFAF7"/>
<path d="M31.7033 3.77751C31.7265 3.80068 31.7265 3.80068 31.7497 3.82386C31.7497 3.80068 31.7265 3.80068 31.7033 3.77751L31.657 3.75433L31.7033 3.77751Z" fill="#FFFAF7"/>
<path d="M31.6802 3.75434C31.6339 3.73116 31.6107 3.70799 31.5875 3.68481C31.6107 3.70799 31.6339 3.73116 31.6802 3.75434Z" fill="#FFFAF7"/>
<path d="M31.263 3.47626C31.2167 3.45309 31.1935 3.42991 31.1472 3.40674C31.1935 3.42991 31.2399 3.45309 31.263 3.47626Z" fill="#FFFAF7"/>
<path d="M23.2909 0.278082C23.2213 0.254907 23.1286 0.254907 23.0591 0.231732C23.0128 0.231732 22.9896 0.231732 22.9432 0.208557C22.9896 0.208557 23.0128 0.208557 23.0591 0.231732C23.1286 0.231732 23.2213 0.254907 23.2909 0.278082Z" fill="#FFFAF7"/>
<path d="M28.4589 1.87718C28.2503 1.78448 28.0649 1.69178 27.8795 1.62225C28.0881 1.69178 28.2735 1.78448 28.4589 1.87718Z" fill="#FFFAF7"/>
<path d="M30.7764 3.15179C30.8227 3.17497 30.8691 3.19814 30.8922 3.22132C30.8691 3.19814 30.8227 3.17497 30.7764 3.15179Z" fill="#FFFAF7"/>
<path d="M26.0719 0.92699C26.0255 0.903815 25.9792 0.903815 25.9328 0.88064C25.8865 0.857465 25.8401 0.857465 25.7938 0.83429C25.8401 0.857465 25.8865 0.857465 25.9328 0.88064C25.956 0.903815 26.0023 0.92699 26.0719 0.92699Z" fill="#FFFAF7"/>
<path d="M25.3071 0.718427C25.2839 0.695251 25.2607 0.695251 25.2375 0.695251H25.2144H25.2375C25.2607 0.695251 25.2839 0.695251 25.3071 0.718427Z" fill="#FFFAF7"/>
<path d="M27.7404 1.55273C27.8099 1.57591 27.8563 1.59908 27.8795 1.62226C27.8331 1.59908 27.8099 1.57591 27.7404 1.55273Z" fill="#FFFAF7"/>
<path d="M30.2665 2.82731L30.3592 2.89684C30.4287 2.94319 30.4983 2.96636 30.5446 3.01271C30.4751 2.96636 30.4287 2.94319 30.3592 2.89684L30.2665 2.82731C30.2433 2.82731 30.2433 2.80414 30.2202 2.80414C30.2433 2.82731 30.2433 2.82731 30.2665 2.82731Z" fill="#FFFAF7"/>
<path d="M32.7462 4.58859C32.6999 4.54224 32.6535 4.51907 32.6072 4.47272C32.6535 4.51907 32.6999 4.54224 32.7462 4.58859Z" fill="#FFFAF7"/>
<path d="M29.9884 2.66506C30.0348 2.68824 30.0811 2.71141 30.1275 2.73459C30.0811 2.71141 30.0348 2.68824 29.9884 2.66506L29.9652 2.64189C29.9421 2.64189 29.9421 2.61871 29.9189 2.61871C29.9421 2.61871 29.9421 2.64189 29.9652 2.64189L29.9884 2.66506Z" fill="#FFFAF7"/>
<path d="M28.5052 1.90031L28.6674 1.99301C28.7369 2.01619 28.8065 2.06254 28.8528 2.08571C28.7833 2.06254 28.7138 2.01619 28.6674 1.99301L28.5052 1.90031C28.5052 1.90031 28.5052 1.87714 28.5052 1.90031C28.5052 1.87714 28.5052 1.90031 28.5052 1.90031Z" fill="#FFFAF7"/>
<path d="M27.022 1.27458C27.1611 1.32093 27.3233 1.39045 27.5087 1.45998C27.5319 1.45998 27.5319 1.45998 27.555 1.48315C27.5319 1.48315 27.5319 1.48315 27.5087 1.45998C27.3233 1.39045 27.1611 1.32093 27.022 1.27458L26.9293 1.2514H26.9061H26.9293L27.022 1.27458Z" fill="#FFFAF7"/>
<path d="M0.208557 17.1031C0.208557 17.0799 0.208557 17.0336 0.231732 17.0104V16.9872V17.0104C0.208557 17.0336 0.208557 17.0568 0.208557 17.1031Z" fill="#FFFAF7"/>
<path d="M0.115845 17.7752C0.115845 17.752 0.115845 17.7289 0.115845 17.7057C0.13902 17.7289 0.115845 17.752 0.115845 17.7752Z" fill="#FFFAF7"/>
<path d="M0.0463683 18.54V18.5168C0.0463683 18.5168 0.0463683 18.5168 0.0463683 18.54C0.0463683 18.6095 0.0231934 18.7022 0.0231934 18.7717C0.0463683 18.679 0.0463683 18.6095 0.0463683 18.54Z" fill="#FFFAF7"/>
<path d="M10.4519 26.7207C10.4519 26.7439 10.4751 26.7671 10.4751 26.7671C10.4519 26.7671 10.4519 26.7439 10.4519 26.7207Z" fill="#FFFAF7"/>
<path d="M20.7416 0.0231323C21.1819 0.0463073 21.6454 0.0694823 22.0857 0.115832C21.6454 0.0694823 21.2051 0.0231323 20.7416 0.0231323Z" fill="#FFFAF7"/>
<path d="M24.1947 0.440308C24.3337 0.463483 24.4496 0.486658 24.5655 0.533008C24.4496 0.486658 24.3106 0.463483 24.1947 0.440308Z" fill="#FFFAF7"/>
<path d="M28.8992 2.08575C29.2004 2.2248 29.4785 2.38703 29.7566 2.54925C29.4785 2.38703 29.2004 2.2248 28.8992 2.08575Z" fill="#FFFAF7"/>
<path d="M33.0243 4.82037C32.978 4.79719 32.9548 4.75084 32.9085 4.72767L32.8389 4.65814L32.9085 4.72767C32.9548 4.75084 33.0012 4.79719 33.0243 4.82037Z" fill="#FFFAF7"/>
<path d="M13.4647 8.71381C15.1796 6.88298 17.2654 5.44614 19.6292 4.54231C20.3476 4.26421 21.0661 4.03246 21.8077 3.87024C21.0661 4.05564 20.3476 4.26421 19.6292 4.54231C17.2422 5.46931 15.1564 6.88298 13.4647 8.71381Z" fill="#FFFAF7"/>
<path d="M17.0104 34.183C15.0406 33.0011 13.3256 31.402 11.9815 29.4785C11.4948 28.7832 11.0776 28.0648 10.7068 27.3C11.0776 28.0416 11.4948 28.7832 11.9815 29.4785C13.3256 31.3788 15.0406 32.9779 17.0104 34.183Z" fill="#FFFAF7"/>
<path d="M4.28737 30.2665C1.5759 27.5782 0.0695249 24.0092 0 20.2085V20.1622V20.0927C0 20.0695 0 20.0463 0 20.0463C0 20.0695 0 20.0927 0 20.0927C0 20.1158 0 20.139 0 20.1622V20.2085C0.0695249 24.0092 1.5759 27.5782 4.28737 30.2665C6.99884 32.9316 10.591 34.4148 14.4148 34.4148C15.0174 34.4148 15.6199 34.3685 16.2225 34.2989C15.6199 34.3685 15.0174 34.4148 14.4148 34.4148C10.591 34.4148 6.99884 32.9316 4.28737 30.2665Z" fill="#FFFAF7"/>
<path d="M33.4647 5.21436C33.511 5.26071 33.5342 5.28389 33.5805 5.30706C33.5574 5.28389 33.511 5.26071 33.4647 5.21436L33.4183 5.16801L33.3951 5.14484L33.4183 5.16801L33.4647 5.21436Z" fill="#FFFAF7"/>
<path d="M34.0209 5.72424C33.9977 5.70106 33.9745 5.67789 33.9513 5.65471C33.9282 5.63154 33.8818 5.58519 33.8586 5.56201C33.8818 5.58519 33.9282 5.63154 33.9513 5.65471C33.9513 5.67789 33.9977 5.70106 34.0209 5.72424Z" fill="#FFFAF7"/>
<path d="M33.7196 5.44609C33.6964 5.42292 33.6501 5.39974 33.6269 5.35339C33.6501 5.37657 33.6732 5.42292 33.7196 5.44609Z" fill="#FFFAF7"/>
<path d="M0.23175 16.9409V16.9872C0.23175 17.0104 0.23175 17.0568 0.208575 17.0799V17.1031C0.208575 17.1263 0.208575 17.1495 0.208575 17.1726V17.219V17.2422V17.2653V17.2885C0.208575 17.358 0.1854 17.4276 0.1854 17.4971C0.1854 17.5666 0.162225 17.613 0.162225 17.6825C0.162225 17.7057 0.162225 17.7288 0.162225 17.752C0.162225 17.8215 0.13905 17.8911 0.13905 17.9606C0.13905 18.0069 0.13905 18.0765 0.115875 18.1228V18.1692C0.115875 18.1923 0.115875 18.2155 0.115875 18.2387C0.115875 18.2619 0.115875 18.285 0.115875 18.3082C0.115875 18.3314 0.115875 18.3314 0.115875 18.3546C0.115875 18.3777 0.115875 18.3777 0.115875 18.4009C0.115875 18.4241 0.115875 18.4473 0.115875 18.4704V18.4936C0.115875 18.5631 0.0926999 18.6558 0.0926999 18.7254C0.0926999 18.7717 0.0926999 18.7949 0.0926999 18.8412C0.0926999 18.8876 0.0926999 18.9108 0.0926999 18.9571C0.0926999 18.9571 0.0926999 18.9571 0.0926999 18.9803V19.0035V19.0266V19.0498C0.0926999 19.0962 0.0926999 19.1425 0.0926999 19.1889C0.0926999 19.212 0.0926999 19.2352 0.0926999 19.2352C0.0926999 19.3279 0.0926999 19.3974 0.0926999 19.467C0.0926999 19.4901 0.0926999 19.4901 0.0926999 19.5133V19.5365C0.0926999 19.606 0.0926999 19.6755 0.0926999 19.7219V19.7682V19.7914V19.8609C0 19.9305 0 19.9305 0 19.9536C0 19.9768 0 19.9768 0 20C0 20.0232 0 20.0232 0 20.0463C0 20.0695 0 20.0927 0 20.0927V20.1622V20.2086C0.0463499 24.0093 1.5759 27.5782 4.28737 30.2433C6.99884 32.9084 10.591 34.3916 14.4148 34.3916C15.0174 34.3916 15.6199 34.3453 16.2225 34.2758C16.5006 34.2526 16.7555 34.2062 17.0336 34.1599C15.0637 32.978 13.3488 31.3789 12.0046 29.4554C11.518 28.7601 11.1008 28.0417 10.73 27.2769C10.6373 27.1147 10.5678 26.9293 10.4983 26.7671C10.4983 26.7439 10.4751 26.7207 10.4751 26.7207C9.54809 24.6118 9.06141 22.3407 9.06141 20C9.06141 16.5933 10.0811 13.3256 12.0278 10.5214C12.4681 9.87252 12.9548 9.26997 13.4878 8.71377C15.2028 6.88295 17.2885 5.4461 19.6524 4.54228C20.3708 4.26418 21.0892 4.03243 21.8308 3.8702C23.0591 3.56893 24.3337 3.42988 25.6315 3.42988C28.6443 3.42988 31.5411 4.241 34.0672 5.7242C34.044 5.70103 34.0209 5.67785 33.9977 5.65467C33.9745 5.6315 33.9282 5.58515 33.905 5.56198L33.8818 5.5388C33.8586 5.51562 33.8123 5.49245 33.7891 5.4461C33.7659 5.42292 33.7196 5.39975 33.6964 5.3534C33.6964 5.3534 33.6964 5.3534 33.6732 5.33022C33.6269 5.30705 33.6037 5.2607 33.5574 5.23753L33.511 5.19117L33.4878 5.168C33.4415 5.12165 33.3951 5.0753 33.3256 5.02895C33.2561 4.9826 33.2097 4.93625 33.1634 4.8899C33.1402 4.86673 33.117 4.86673 33.117 4.84355C33.0707 4.82038 33.0475 4.77403 33.0012 4.75085L32.9316 4.68133L32.8853 4.63498L32.8621 4.6118L32.8389 4.58863C32.7926 4.54228 32.7462 4.5191 32.6999 4.47275C32.6767 4.44958 32.6304 4.4264 32.6072 4.38005C32.4913 4.28735 32.3754 4.19465 32.2827 4.12513C32.2596 4.10195 32.2132 4.07878 32.19 4.0556L32.1437 4.03243L32.1205 4.00925C32.1205 4.00925 32.1205 4.00925 32.0973 4.00925L32.0278 3.9629L32.0046 3.93973L31.9119 3.8702L31.8888 3.84703C31.8656 3.82385 31.8656 3.82385 31.8424 3.80068L31.8192 3.7775C31.7961 3.75433 31.7497 3.73115 31.7265 3.70798L31.7034 3.6848C31.6107 3.61528 31.5411 3.56893 31.4484 3.4994C31.4021 3.47623 31.3789 3.45305 31.3326 3.42988L31.3094 3.4067C31.263 3.36035 31.1935 3.33718 31.1472 3.29083C31.124 3.29083 31.124 3.26765 31.1008 3.26765C31.0545 3.24448 31.0081 3.2213 30.9849 3.19813C30.9154 3.15178 30.8691 3.1286 30.7995 3.08225C30.73 3.0359 30.6837 3.01273 30.6141 2.96638L30.5214 2.89685C30.4983 2.89685 30.4983 2.87368 30.4751 2.87368C30.4519 2.87368 30.4287 2.8505 30.4056 2.8505C30.3824 2.8505 30.3824 2.82733 30.3592 2.82733C30.3129 2.80415 30.2665 2.78098 30.2202 2.7578L30.197 2.73463C30.1738 2.73463 30.1738 2.71145 30.1506 2.71145C30.1043 2.68828 30.0579 2.6651 30.0348 2.64193C30.0348 2.64193 30.0348 2.64193 30.0116 2.64193C29.7335 2.4797 29.4322 2.34065 29.1541 2.17843H29.1309C29.0614 2.15525 28.9919 2.1089 28.9455 2.08573L28.5052 1.90033C28.5052 1.90033 28.5052 1.90033 28.482 1.90033C28.2735 1.80763 28.0881 1.71493 27.9027 1.6454C27.8563 1.62223 27.81 1.59905 27.7636 1.59905H27.7404H27.7173L27.6477 1.57588C27.6246 1.57588 27.6014 1.5527 27.555 1.5527C27.5319 1.5527 27.5319 1.5527 27.5087 1.52953C27.3233 1.46 27.1611 1.39048 27.022 1.34413L26.9293 1.32095H26.9061L26.8134 1.29778C26.5585 1.20508 26.3268 1.11238 26.0487 1.04286C26.0487 1.04286 26.0487 1.04286 26.0255 1.04286C25.9791 1.01968 25.9328 1.01968 25.8864 0.996505C25.8401 0.97333 25.7937 0.97333 25.7474 0.950155C25.7242 0.950155 25.6779 0.92698 25.6547 0.92698C25.5388 0.903805 25.4461 0.857455 25.3302 0.834281C25.3071 0.834281 25.3071 0.834281 25.2839 0.834281C25.2839 0.695231 25.2607 0.695231 25.2375 0.695231H25.2144H25.1912C24.9826 0.648881 24.774 0.579356 24.5423 0.533006C24.4264 0.509831 24.2874 0.486656 24.1715 0.440306C23.9629 0.393956 23.7312 0.347606 23.5226 0.301256C23.4531 0.278081 23.3604 0.278081 23.2908 0.254906C23.2213 0.231731 23.1286 0.231731 23.0591 0.208556C23.0127 0.208556 22.9896 0.208556 22.9432 0.185381C22.8969 0.185381 22.8505 0.162206 22.8042 0.162206C22.5724 0.139031 22.3407 0.0926815 22.1089 0.0695065C21.6686 0.0231566 21.2051 -1.8388e-05 20.7648 -0.0231934C20.5098 -1.8388e-05 20.2549 -1.8388e-05 20 -1.8388e-05C19.5829 -1.8388e-05 19.1425 0.0231566 18.7254 0.0463316C18.679 0.0463316 18.6327 0.0463316 18.5863 0.0463316C18.1228 0.0695065 17.6593 0.115856 17.1958 0.185381C17.1031 0.208556 17.0336 0.208556 16.9409 0.231731L0.23175 16.9409Z" fill="#005FA3"/>
<path d="M39.7682 23.0359V23.0127C39.7682 22.9896 39.7682 22.9664 39.7914 22.92V22.8969C39.7914 22.8505 39.8146 22.8273 39.8146 22.781V22.7578V22.7346C39.8146 22.7115 39.8146 22.7115 39.8146 22.7115L39.8378 22.5956L39.8609 22.5029C39.8609 22.4102 39.8841 22.3407 39.8841 22.2711C39.8841 22.2016 39.9073 22.1321 39.9073 22.0626C39.9073 21.993 39.9305 21.9467 39.9305 21.9003V21.854C39.9305 21.8076 39.9305 21.7845 39.9305 21.7381V21.7149V21.6918C39.9305 21.6454 39.9305 21.5991 39.9536 21.5295V21.5064C39.9536 21.4368 39.9768 21.3673 39.9768 21.2746C39.9768 21.2051 39.9768 21.1124 40 21.0429V21.0197V20.9965V20.9733C40 20.9038 40 20.8343 40 20.7879C40 20.6952 40 20.6257 40 20.533V20.4867C40 20.4171 40 20.3708 40 20.3013V20.1622C40 20.1159 40 20.0695 40 20C40 19.9536 40 19.8841 40 19.8378V19.7914C39.9536 15.9907 38.4241 12.4218 35.7126 9.75666C33.0011 7.09153 29.409 5.60834 25.5851 5.60834C24.7045 5.60834 23.8239 5.67786 22.9896 5.84009C24.9594 7.02201 26.6744 8.62108 28.0185 10.5446C29.9652 13.3256 30.9849 16.5933 30.9849 20.0232C30.9849 23.4299 29.9652 26.6976 28.0185 29.5017C26.1182 32.2132 23.4762 34.299 20.394 35.4809C18.4936 36.2225 16.4774 36.5933 14.4148 36.5933C11.4021 36.5933 8.5052 35.7821 5.97913 34.299H6.0023C6.02548 34.3221 6.02548 34.3221 6.04865 34.3453L6.095 34.3916C6.11818 34.4148 6.16453 34.4612 6.1877 34.4844C6.23405 34.5307 6.30358 34.6002 6.3731 34.6466C6.41945 34.6929 6.4658 34.7161 6.48898 34.7624C6.5585 34.832 6.62803 34.9015 6.72073 34.971C6.76708 35.0174 6.81343 35.0637 6.85978 35.1101L6.88295 35.1333L7.022 35.2491L7.04517 35.2723C7.09152 35.2955 7.1147 35.3418 7.16105 35.365L7.18422 35.3882L7.2074 35.4114C7.23057 35.4345 7.27692 35.4809 7.32327 35.504H7.34645H7.36962C7.3928 35.5272 7.43915 35.5504 7.46232 35.5736C7.5782 35.6663 7.6709 35.7358 7.78677 35.8285C7.80995 35.8517 7.83312 35.8748 7.8563 35.8748C7.87947 35.898 7.90265 35.9212 7.949 35.9444C7.97217 35.9676 7.97217 35.9675 7.99535 35.9675L8.01852 35.9907C8.06487 36.0139 8.11122 36.0602 8.15757 36.0834L8.20392 36.1066C8.2271 36.1298 8.25027 36.1298 8.27345 36.1529C8.29662 36.1761 8.34297 36.1993 8.36615 36.2225L8.4125 36.2456C8.5052 36.3152 8.57472 36.3615 8.66742 36.431C8.71377 36.4542 8.73695 36.4774 8.7833 36.5006L8.80647 36.5237L8.89917 36.5933L8.99187 36.6628C9.03822 36.686 9.08457 36.7323 9.1541 36.7555C9.20045 36.7787 9.26997 36.825 9.31632 36.8482H9.50172L9.73347 37.0568C9.75665 37.0799 9.803 37.1031 9.84935 37.1263C9.91887 37.1726 9.9884 37.219 10.0579 37.2422C10.1043 37.2653 10.1738 37.3117 10.2201 37.3349C10.5214 37.4971 10.8227 37.6593 11.124 37.7984C11.1935 37.8215 11.263 37.8679 11.3325 37.8911C11.3325 37.8911 11.3557 37.8911 11.3557 37.9142C11.4252 37.9374 11.4716 37.9838 11.5411 38.0069C11.7265 38.0996 11.9119 38.1923 12.1205 38.2619C12.1668 38.285 12.2132 38.3082 12.2595 38.3314C12.2827 38.3314 12.2827 38.3546 12.3059 38.3546C12.3754 38.3777 12.4218 38.4009 12.4913 38.4241C12.6535 38.4936 12.8157 38.54 12.978 38.6095C13.0243 38.6327 13.0938 38.6558 13.1402 38.679C13.3951 38.7717 13.65 38.8644 13.8818 38.9339C13.9281 38.9571 13.9745 38.9571 14.0208 38.9803C14.0904 39.0035 14.1599 39.0266 14.2526 39.0498L14.3221 39.073C14.4148 39.0962 14.5075 39.1193 14.577 39.1425C14.6234 39.1657 14.6697 39.1657 14.7161 39.1889C15.2723 39.3279 15.8285 39.467 16.3847 39.5597C16.4542 39.5828 16.5237 39.5828 16.6164 39.606C16.7091 39.6292 16.7787 39.6292 16.8482 39.6524C16.9177 39.6755 17.0104 39.6755 17.0799 39.6755C18.0069 39.8146 18.9339 39.8609 19.8841 39.8609C20.8111 39.8609 21.7613 39.7914 22.6883 39.6755H22.7115C22.781 39.6755 22.8505 39.6524 22.9432 39.6524L39.6524 22.9432C39.7682 23.0359 39.7682 23.0359 39.7682 23.0359Z" fill="#222222"/>
</svg>

<svg width="40" height="40" fill="none" xmlns="http://www.w3.org/2000/svg"><path d="M32.584 4.45c-.023-.024-.07-.047-.093-.093.023.046.07.07.093.093ZM32.144 4.102c.116.093.231.185.347.255-.116-.07-.231-.162-.347-.255-.023-.023-.07-.046-.093-.07l-.046-.023.046.023c.023.024.07.047.093.07ZM31.958 3.963l-.07-.046.07.046ZM31.703 3.778l.047.046c0-.023-.023-.023-.047-.046l-.046-.024.046.024ZM31.68 3.754ZM31.263 3.476c-.046-.023-.07-.046-.116-.07.047.024.093.047.116.07ZM23.29.278c-.069-.023-.161-.023-.23-.046-.047 0-.07 0-.117-.023.047 0 .07 0 .116.023.07 0 .162.023.232.046ZM28.459 1.877c-.209-.093-.394-.185-.58-.255.21.07.394.162.58.255ZM30.776 3.152c.047.023.093.046.116.07-.023-.024-.07-.047-.116-.07ZM26.072.927c-.046-.023-.093-.023-.14-.046-.045-.024-.092-.024-.138-.047.046.023.093.023.139.047.023.023.07.046.139.046ZM25.307.718c-.023-.023-.046-.023-.07-.023h-.023.024c.023 0 .046 0 .07.023ZM27.74 1.553c.07.023.116.046.14.07-.047-.024-.07-.047-.14-.07ZM30.267 2.827l.092.07c.07.046.14.07.186.116-.07-.047-.116-.07-.186-.116l-.093-.07c-.023 0-.023-.023-.046-.023.023.023.023.023.047.023ZM32.746 4.589c-.046-.047-.093-.07-.139-.116.047.046.093.07.14.116ZM29.988 2.665l.14.07-.14-.07-.023-.023c-.023 0-.023-.023-.046-.023.023 0 .023.023.046.023l.023.023ZM28.505 1.9l.162.093c.07.023.14.07.186.093-.07-.023-.14-.07-.186-.093l-.162-.093s0-.023 0 0c0-.023 0 0 0 0ZM27.022 1.275c.14.046.301.115.487.185.023 0 .023 0 .046.023-.023 0-.023 0-.046-.023-.186-.07-.348-.14-.487-.185l-.093-.024h-.023.023l.093.024ZM.209 17.103c0-.023 0-.07.023-.093v-.023.023c-.023.024-.023.047-.023.093ZM.116 17.775v-.07c.023.024 0 .047 0 .07ZM.046 18.54v-.023.023c0 .07-.023.162-.023.232.023-.093.023-.162.023-.232ZM10.452 26.72c0 .024.023.047.023.047-.023 0-.023-.023-.023-.046ZM20.742.023c.44.023.903.046 1.344.093-.44-.047-.88-.093-1.344-.093ZM24.195.44c.139.023.255.047.37.093-.115-.046-.254-.07-.37-.093ZM28.9 2.086c.3.139.579.301.857.463-.279-.162-.557-.324-.858-.463ZM33.024 4.82c-.046-.023-.07-.07-.116-.092l-.07-.07.07.07c.047.023.093.07.116.092ZM13.465 8.714c1.715-1.831 3.8-3.268 6.164-4.172.719-.278 1.437-.51 2.179-.672-.742.186-1.46.394-2.179.672a16.438 16.438 0 0 0-6.164 4.172ZM17.01 34.183a16.494 16.494 0 0 1-5.029-4.704 15.74 15.74 0 0 1-1.274-2.179c.37.742.788 1.483 1.274 2.178a17.08 17.08 0 0 0 5.03 4.705ZM4.287 30.267C1.576 27.578.07 24.009 0 20.209v-.163.163c.07 3.8 1.576 7.37 4.287 10.058ZM33.465 5.214c.046.047.07.07.115.093-.023-.023-.069-.046-.115-.093l-.047-.046-.023-.023.023.023.047.046ZM34.02 5.724l-.069-.07-.092-.092.092.093c0 .023.047.046.07.07ZM33.72 5.446c-.024-.023-.07-.046-.093-.093.023.024.046.07.093.093Z" fill="#FFFAF7"/><path d="M.232 16.94v.047c0 .023 0 .07-.023.093v.208c0 .07-.024.14-.024.21 0 .069-.023.115-.023.184v.07c0 .07-.023.14-.023.209 0 .046 0 .116-.023.162v.371c0 .07-.023.162-.023.231V19.861C0 19.93 0 19.93 0 19.954v.255c.046 3.8 1.576 7.37 4.287 10.034a14.366 14.366 0 0 0 11.936 4.033c.278-.023.533-.07.81-.116a16.494 16.494 0 0 1-5.028-4.705 15.75 15.75 0 0 1-1.275-2.178c-.093-.162-.162-.348-.232-.51 0-.023-.023-.046-.023-.046A16.644 16.644 0 0 1 9.061 20c0-3.407 1.02-6.674 2.967-9.479.44-.648.927-1.251 1.46-1.807 1.715-1.831 3.8-3.268 6.164-4.172.719-.278 1.437-.51 2.179-.672a15.938 15.938 0 0 1 3.8-.44c3.013 0 5.91.811 8.436 2.294l-.07-.07-.092-.092-.023-.023c-.023-.023-.07-.047-.093-.093-.023-.023-.07-.046-.093-.093l-.023-.023c-.046-.023-.07-.07-.116-.092l-.046-.047-.023-.023a1.007 1.007 0 0 0-.162-.14 1.007 1.007 0 0 1-.163-.138c-.023-.023-.046-.023-.046-.046-.046-.024-.07-.07-.116-.093l-.07-.07-.046-.046-.023-.023-.023-.023c-.046-.047-.093-.07-.14-.116-.022-.023-.069-.047-.092-.093a14.518 14.518 0 0 0-.324-.255c-.023-.023-.07-.046-.093-.07l-.046-.023-.023-.023h-.024l-.07-.046-.022-.023-.093-.07-.023-.023-.047-.046-.023-.024c-.023-.023-.07-.046-.092-.069l-.024-.023c-.092-.07-.162-.116-.255-.186-.046-.023-.07-.046-.115-.07l-.024-.022c-.046-.047-.116-.07-.162-.116-.023 0-.023-.023-.046-.023-.046-.024-.093-.047-.116-.07-.07-.046-.116-.07-.186-.116-.069-.046-.115-.07-.185-.116l-.093-.07c-.023 0-.023-.022-.046-.022s-.046-.024-.07-.024c-.023 0-.023-.023-.046-.023l-.139-.07-.023-.022c-.023 0-.023-.024-.046-.024-.047-.023-.093-.046-.116-.07h-.023c-.279-.161-.58-.3-.858-.463h-.023c-.07-.023-.14-.07-.186-.092l-.44-.186h-.023c-.209-.092-.394-.185-.58-.255-.046-.023-.092-.046-.138-.046h-.047l-.07-.023c-.022 0-.046-.023-.092-.023-.023 0-.023 0-.046-.023-.186-.07-.348-.14-.487-.186l-.093-.023h-.023l-.093-.023c-.255-.093-.486-.186-.764-.255h-.023c-.047-.023-.093-.023-.14-.046-.046-.024-.092-.024-.139-.047-.023 0-.07-.023-.092-.023-.116-.023-.209-.07-.325-.093h-.046c0-.139-.023-.139-.046-.139h-.047c-.208-.046-.417-.116-.649-.162-.116-.023-.255-.046-.37-.093-.21-.046-.44-.092-.65-.139-.069-.023-.162-.023-.231-.046-.07-.023-.162-.023-.232-.046-.046 0-.07 0-.116-.024-.046 0-.093-.023-.139-.023-.232-.023-.463-.07-.695-.092-.44-.047-.904-.07-1.344-.093C20.51 0 20.255 0 20 0c-.417 0-.858.023-1.275.046h-.139c-.463.024-.927.07-1.39.14-.093.023-.162.023-.255.046L.23 16.94Z" fill="#005FA3"/><path d="M39.768 23.036v-.023c0-.023 0-.047.023-.093v-.023c0-.046.024-.07.024-.116v-.069l.023-.116.023-.093c0-.093.023-.162.023-.232s.023-.139.023-.208c0-.07.024-.116.024-.163v-.208c0-.047 0-.093.023-.163v-.023c0-.07.023-.139.023-.231 0-.07 0-.163.023-.232V19.79a14.245 14.245 0 0 0-4.287-10.034 14.366 14.366 0 0 0-10.128-4.149c-.88 0-1.761.07-2.595.232a16.494 16.494 0 0 1 5.029 4.705c1.946 2.78 2.966 6.048 2.966 9.478 0 3.407-1.02 6.675-2.966 9.479a16.552 16.552 0 0 1-7.625 5.979 16.392 16.392 0 0 1-5.98 1.112c-3.012 0-5.909-.81-8.435-2.294h.023l.047.046.046.047.093.092c.046.047.116.116.185.163.046.046.093.07.116.115.07.07.139.14.232.209l.139.14.023.022.139.116.023.023c.047.023.07.07.116.093l.023.023.023.023c.024.023.07.07.116.093h.047c.023.023.07.046.092.07.116.092.209.162.325.255.023.023.046.046.07.046a.32.32 0 0 0 .092.07c.023.023.023.023.046.023l.024.023c.046.023.092.07.139.092l.046.024c.023.023.046.023.07.046.023.023.069.046.092.07l.046.023c.093.07.163.115.255.185.047.023.07.046.116.07l.023.023.093.07.093.069c.046.023.093.07.162.093.046.023.116.069.162.092h.186l.231.209c.024.023.07.046.116.07.07.046.14.092.209.115.046.023.116.07.162.093.301.162.603.324.904.463.07.023.139.07.208.093 0 0 .024 0 .024.023.07.023.116.07.185.093.185.093.37.185.58.255l.138.07c.024 0 .024.023.047.023.07.023.116.046.185.07.162.069.325.115.487.184.046.024.116.047.162.07.255.093.51.185.742.255.046.023.093.023.139.046.07.024.139.047.232.07l.07.023c.092.023.184.046.254.07.046.023.093.023.14.046.555.139 1.111.278 1.668.37.07.024.139.024.231.047.093.023.163.023.232.046.07.023.162.023.232.023.927.14 1.854.186 2.804.186.927 0 1.877-.07 2.804-.185h.024c.069 0 .139-.024.231-.024l16.71-16.709.115.093Z" fill="#222"/></svg>
